public/Icon_lemon.svg

<svg xmlns="http://www.w3.org/2000/svg" width="128" height="128" fill="none"><path fill="#fff" d="M48 16c-10.328 0-19.516 5.752-25.876 14.5C15.764 39.252 12 51.06 12 64c0 12.936 3.764 24.752 10.124 33.5C28.484 106.252 37.672 112 48 112c32.92 0 50.468-18.828 54.752-38.624C105.76 71.2 108 67.984 108 64c0-3.984-2.236-7.2-5.252-9.376C98.24 34.328 77.252 16 48 16Zm0 8c7.344 0 14.16 4.064 19.376 11.252C72.592 42.432 76 52.64 76 64s-3.408 21.56-8.624 28.752C62.156 99.932 55.344 104 48 104c-7.344 0-14.16-4.064-19.376-11.252C23.408 85.568 20 75.36 20 64s3.408-21.56 8.624-28.752C33.844 28.064 40.656 24 48 24Zm25.5 6.124c12.16 6.44 19.968 17.032 21.876 27.376l.372 2 1.88.876C99.016 61.016 100 62.36 100 64c0 1.64-.984 2.984-2.376 3.624l-1.872.876-.376 2c-2.128 11.58-9.112 22.936-23.128 29 .548-.656 1.112-1.296 1.628-2C80.236 88.748 84 76.94 84 64c0-12.936-3.764-24.752-10.124-33.5-.112-.14-.268-.236-.376-.376ZM48 32c-2.86 0-5.548 1.032-8 2.752l8.124 19.12 8.252-19C53.84 33.02 50.968 32 48 32Zm-14 9.124c-3.14 4.92-5.296 11.52-5.876 18.876H42l-8-18.876Zm28.252.376L54.12 60h13.752c-.56-7.188-2.596-13.608-5.628-18.5h.008ZM28.12 68c.56 7.188 2.596 13.608 5.624 18.5L41.88 68H28.12Zm25.876 0 8 18.876c3.14-4.92 5.296-11.52 5.876-18.876H53.996Zm-6.124 6.124-8.252 19C42.152 94.984 45.028 96 47.996 96c2.86 0 5.548-1.032 8-2.752l-8.124-19.124Z"/></svg>

<svg width="128" height="128" viewBox="0 0 128 128" fill="none" xmlns="http://www.w3.org/2000/svg">
<path d="M48 16C37.672 16 28.484 21.752 22.124 30.5C15.764 39.252 12 51.06 12 64C12 76.936 15.764 88.752 22.124 97.5C28.484 106.252 37.672 112 48 112C80.92 112 98.468 93.172 102.752 73.376C105.76 71.2 108 67.984 108 64C108 60.016 105.764 56.8 102.748 54.624C98.24 34.328 77.252 16 48 16ZM48 24C55.344 24 62.16 28.064 67.376 35.252C72.592 42.432 76 52.64 76 64C76 75.36 72.592 85.56 67.376 92.752C62.156 99.932 55.344 104 48 104C40.656 104 33.84 99.936 28.624 92.748C23.408 85.568 20 75.36 20 64C20 52.64 23.408 42.44 28.624 35.248C33.844 28.064 40.656 24 48 24ZM73.5 30.124C85.66 36.564 93.468 47.156 95.376 57.5L95.748 59.5L97.628 60.376C99.016 61.016 100 62.36 100 64C100 65.64 99.016 66.984 97.624 67.624L95.752 68.5L95.376 70.5C93.248 82.08 86.264 93.436 72.248 99.5C72.796 98.844 73.36 98.204 73.876 97.5C80.236 88.748 84 76.94 84 64C84 51.064 80.236 39.248 73.876 30.5C73.764 30.36 73.608 30.264 73.5 30.124ZM48 32C45.14 32 42.452 33.032 40 34.752L48.124 53.872L56.376 34.872C53.84 33.02 50.968 32 48 32ZM34 41.124C30.86 46.044 28.704 52.644 28.124 60H42L34 41.124ZM62.252 41.5L54.12 60H67.872C67.312 52.812 65.276 46.392 62.244 41.5H62.252ZM28.12 68C28.68 75.188 30.716 81.608 33.744 86.5L41.88 68H28.12ZM53.996 68L61.996 86.876C65.136 81.956 67.292 75.356 67.872 68H53.996ZM47.872 74.124L39.62 93.124C42.152 94.984 45.028 96 47.996 96C50.856 96 53.544 94.968 55.996 93.248L47.872 74.124Z" fill="white"/>
</svg>
